src/objects/clothing/1FA74.svg

<svg id="emoji" viewBox="0 0 72 72" xmlns="http://www.w3.org/2000/svg">
  <g id="grid">
    <path fill="#b3b3b3" d="M68,4V68H4V4H68m4-4H0V72H72V0Z"/>
    <path fill="none" stroke="#00a5ff" stroke-miterlimit="10" stroke-width="0.1" d="M12.923,10.9583H59.0769A1.9231,1.9231,0,0,1,61,12.8814V59.0352a1.9231,1.9231,0,0,1-1.9231,1.9231H12.9231A1.9231,1.9231,0,0,1,11,59.0352V12.8813A1.923,1.923,0,0,1,12.923,10.9583Z"/>
    <rect x="16" y="4" rx="2.2537" width="40" height="64" fill="none" stroke="#00a5ff" stroke-miterlimit="10" stroke-width="0.1"/>
    <rect x="16" y="4" rx="2.2537" width="40" height="64" transform="rotate(90 36 36)" fill="none" stroke="#00a5ff" stroke-miterlimit="10" stroke-width="0.1"/>
    <circle cx="36" cy="36" r="29" fill="none" stroke="#00a5ff" stroke-miterlimit="10" stroke-width="0.1"/>
  </g>
  <g id="color">
    <path fill="#fcea2b" d="M37.2373,61.8457a8.756,8.756,0,0,1-5.542-1.7978c-3.4931-2.73-3.9316-7.544-3.9482-7.7471L24.2305,30.4c-.9248-7.2568.1211-12.7666,3.1054-16.4063a10.9052,10.9052,0,0,1,7.0889-4.0214,10.1811,10.1811,0,0,1,7.5059,2.7441c2.1816,2.2275,3.0615,5.5879,2.6142,9.9883-.7744,7.626,1.0547,24.3271,1.169,25.3554.1435.6836,1.2959,6.6407-1.3223,10.5059a7.2109,7.2109,0,0,1-5.0283,3.1A13.2293,13.2293,0,0,1,37.2373,61.8457ZM34.502,10.97h0Z"/>
  </g>
  <g id="line">
    <path fill="none" stroke="#000" stroke-linecap="round" stroke-linejoin="round" stroke-width="2" d="M43.55,22.6038C44.816,10.1385,34.5016,10.97,34.5016,10.97s-8.1434.5758-9.4276,11.5684"/>
    <path fill="none" stroke="#000" stroke-linecap="round" stroke-linejoin="round" stroke-width="2" d="M26.3811,37.4927l2.3622,14.7248s.8348,10.0291,10.4589,8.4611c8-1.3034,5.5232-12.4566,5.5232-12.4566S44.1129,42.81,43.7066,36.62"/>
    <path fill="none" stroke="#000" stroke-linecap="round" stroke-linejoin="round" stroke-width="2" d="M28.1894,35.1471s-11.22-3.6806,5.464-15.1572l.3479-2.83"/>
    <path fill="none" stroke="#000" stroke-linecap="round" stroke-linejoin="round" stroke-width="2" d="M40.6653,34.1658S51.3068,29.504,33.6534,19.99"/>
  </g>
</svg>

<svg viewBox="0 0 72 72" xmlns="http://www.w3.org/2000/svg"><path fill="#b3b3b3" d="M68 4v64H4V4h64m4-4H0v72h72V0z"/><path fill="none" stroke="#00a5ff" stroke-miterlimit="10" stroke-width=".1" d="M12.923 10.958h46.154A1.923 1.923 0 0161 12.881v46.154a1.923 1.923 0 01-1.923 1.923H12.923A1.923 1.923 0 0111 59.035V12.881a1.923 1.923 0 011.923-1.923z"/><rect x="16" y="4" rx="2.254" width="40" height="64" fill="none" stroke="#00a5ff" stroke-miterlimit="10" stroke-width=".1"/><rect x="16" y="4" rx="2.254" width="40" height="64" transform="rotate(90 36 36)" fill="none" stroke="#00a5ff" stroke-miterlimit="10" stroke-width=".1"/><circle cx="36" cy="36" r="29" fill="none" stroke="#00a5ff" stroke-miterlimit="10" stroke-width=".1"/><g stroke-linecap="round" stroke-miterlimit="10" stroke-width="6" stroke="#fff" fill="none" stroke-linejoin="round"><path d="M43.55 22.604c1.266-12.465-9.048-11.634-9.048-11.634s-8.144.576-9.428 11.568m1.307 14.955l2.362 14.724s.835 10.03 10.46 8.462c8-1.304 5.522-12.457 5.522-12.457s-.612-5.412-1.018-11.602"/><path d="M28.19 35.147s-11.22-3.68 5.463-15.157l.348-2.83m6.664 17.006s10.642-4.662-7.012-14.176"/></g><path fill="#fcea2b" d="M37.237 61.846a8.756 8.756 0 01-5.542-1.798c-3.493-2.73-3.931-7.544-3.948-7.747L24.23 30.4c-.924-7.257.122-12.767 3.106-16.406a10.905 10.905 0 017.089-4.022 10.181 10.181 0 017.506 2.744c2.181 2.228 3.061 5.588 2.614 9.989-.775 7.626 1.055 24.327 1.169 25.355.143.684 1.296 6.64-1.322 10.506a7.21 7.21 0 01-5.029 3.1 13.23 13.23 0 01-2.126.18zM34.502 10.97z"/><g fill="none" stroke="#000" stroke-linecap="round" stroke-linejoin="round" stroke-width="2"><path d="M43.55 22.604c1.266-12.465-9.048-11.634-9.048-11.634s-8.144.576-9.428 11.568m1.307 14.955l2.362 14.724s.835 10.03 10.46 8.462c8-1.304 5.522-12.457 5.522-12.457s-.612-5.412-1.018-11.602"/><path d="M28.19 35.147s-11.22-3.68 5.463-15.157l.348-2.83m6.664 17.006s10.642-4.662-7.012-14.176"/></g></svg>
